communes/5642.svg

<?xml version="1.0" encoding="UTF-8"?>
<svg version="1.0" viewBox="0 0 603 763" xmlns="http://www.w3.org/2000/svg" xmlns:cc="http://creativecommons.org/ns#" xmlns:dc="http://purl.org/dc/elements/1.1/" xmlns:rdf="http://www.w3.org/1999/02/22-rdf-syntax-ns#" xmlns:xlink="http://www.w3.org/1999/xlink">
<metadata>
<rdf:RDF>
<cc:Work rdf:about="">
<dc:format>image/svg+xml</dc:format>
<dc:type rdf:resource="http://purl.org/dc/dcmitype/StillImage"/>
<dc:date>07-AUG-2006</dc:date>
<dc:creator>
<cc:Agent>
<dc:title>Jérôme BLUM (wagner51)</dc:title>
</cc:Agent>
</dc:creator>
<cc:license rdf:resource="http://creativecommons.org/licenses/GPL/2.0/"/>
<dc:coverage/>
<dc:description>Gabarit pour le Projet:Blasons de WIkipédia</dc:description>
<dc:subject>
<rdf:Bag>
<rdf:li>blason suisse modèle gabarit projet blasons</rdf:li>
</rdf:Bag>
</dc:subject>
<dc:language>fr</dc:language>
<dc:title>Gabrit d'un blason suisse</dc:title>
</cc:Work>
<cc:License rdf:about="http://creativecommons.org/licenses/GPL/2.0/">
<cc:permits rdf:resource="http://web.resource.org/cc/Reproduction"/>
<cc:permits rdf:resource="http://web.resource.org/cc/Distribution"/>
<cc:requires rdf:resource="http://web.resource.org/cc/Notice"/>
<cc:permits rdf:resource="http://web.resource.org/cc/DerivativeWorks"/>
<cc:requires rdf:resource="http://web.resource.org/cc/ShareAlike"/>
<cc:requires rdf:resource="http://web.resource.org/cc/SourceCode"/>
</cc:License>
</rdf:RDF>
</metadata>
<defs>
<radialGradient id="a" cx="858.04" cy="579.93" r="300" gradientTransform="matrix(1.215 1.5316e-24 1.4647e-23 1.2667 -839.19 -490.49)" gradientUnits="userSpaceOnUse">
<stop stop-color="#fff" stop-opacity=".31373" offset="0"/>
<stop stop-color="#fff" stop-opacity=".25098" offset=".19"/>
<stop stop-color="#6b6b6b" stop-opacity=".12549" offset=".6"/>
<stop stop-opacity=".12549" offset="1"/>
</radialGradient>
</defs>
<desc>Coat of Arms of Canton of Freiburg (Fribourg)</desc>
<g>
<path d="m1.5 1.5v458.87c0 166.31 134.31 301.13 300 301.13 165.69 0 300-134.82 300-301.13v-458.87h-600z" fill="#e20909"/>
<rect x="1.5" y="1.5" width="600" height="365.5" fill="#fff"/>
<path d="m597.59 508.96c-1.524 0.06-3.081 0.102-4.712 0.102-48.561 0-48.561-27.347-97.124-27.347s-48.563 27.347-97.128 27.347c-48.563 0-48.563-27.347-97.128-27.347-48.563 0-48.563 27.347-97.125 27.347-48.563 0-48.564-27.347-97.126-27.347-48.563 0-48.563 27.347-97.127 27.347-1.631 0-3.188-0.042-4.713-0.102 6.005 37.146 18.774 72.008 37.006 103.28 20.329-7.991 30.315-21.807 64.835-21.807 48.562 0 48.562 27.347 97.126 27.347s48.564-27.347 97.125-27.347c48.564 0 48.564 27.347 97.128 27.347s48.564-27.347 97.128-27.347c34.519 0 44.505 13.814 64.831 21.806 18.23-31.269 30.999-66.131 37.004-103.28z" fill="#fff"/>
<path d="m601.5 251.96v-108.72c-2.703 0.204-5.554 0.325-8.62 0.325-48.561 0-48.561-27.346-97.124-27.346s-48.563 27.346-97.128 27.346c-48.563 0-48.563-27.346-97.128-27.346-48.563 0-48.563 27.346-97.125 27.346-48.563 0-48.564-27.346-97.126-27.346-48.563 0-48.563 27.346-97.127 27.346-3.066 0-5.918-0.121-8.622-0.325v108.72c2.704 0.205 5.555 0.325 8.622 0.325 48.564 0 48.564-27.347 97.127-27.347 48.562 0 48.562 27.347 97.126 27.347s48.564-27.347 97.125-27.347c48.564 0 48.564 27.347 97.128 27.347s48.564-27.347 97.128-27.347 48.563 27.347 97.124 27.347c3.066 0 5.917-0.121 8.62-0.326z" fill="#e20909"/>
<path d="m597.59 508.96c-1.524 0.06-3.081 0.102-4.712 0.102-48.561 0-48.561-27.347-97.124-27.347s-48.563 27.347-97.128 27.347c-48.563 0-48.563-27.347-97.128-27.347-48.563 0-48.563 27.347-97.125 27.347-48.563 0-48.564-27.347-97.126-27.347-48.563 0-48.563 27.347-97.127 27.347-1.631 0-3.188-0.042-4.713-0.102" fill="none" stroke="#000" stroke-width="3"/>
<path d="m42.414 612.24c20.329-7.991 30.315-21.807 64.835-21.807 48.562 0 48.562 27.347 97.126 27.347s48.564-27.347 97.125-27.347c48.564 0 48.564 27.347 97.128 27.347s48.564-27.347 97.128-27.347c34.519 0 44.505 13.814 64.831 21.806" fill="none" stroke="#000" stroke-width="3"/>
<line x1="1.5" x2="601.5" y1="367" y2="367" fill="none" stroke="#000" stroke-width="3"/>
<path d="m1.5 251.96c2.704 0.205 5.555 0.325 8.622 0.325 48.564 0 48.564-27.347 97.127-27.347 48.562 0 48.562 27.347 97.126 27.347s48.564-27.347 97.125-27.347c48.564 0 48.564 27.347 97.128 27.347s48.564-27.347 97.128-27.347 48.563 27.347 97.124 27.347c3.066 0 5.917-0.121 8.62-0.325" fill="none" stroke="#000" stroke-width="3"/>
<path d="m601.5 143.24c-2.703 0.204-5.554 0.325-8.62 0.325-48.561 0-48.561-27.346-97.124-27.346s-48.563 27.346-97.128 27.346c-48.563 0-48.563-27.346-97.128-27.346-48.563 0-48.563 27.346-97.125 27.346-48.563 0-48.564-27.346-97.126-27.346-48.563 0-48.563 27.346-97.127 27.346-3.066 0-5.918-0.121-8.622-0.325" fill="none" stroke="#000" stroke-width="3"/>
</g>
<g>
<path d="m1.5 1.5v458.87c0 166.31 134.31 301.13 300 301.13 165.69 0 300-134.82 300-301.13v-458.87h-600z" fill="url(#a)"/>
<path d="m1.5 1.5v458.87c0 166.31 134.31 301.13 300 301.13 165.69 0 300-134.82 300-301.13v-458.87h-600z" fill="none" stroke="#000" stroke-width="3"/>
</g>
</svg>

<?xml version="1.0" encoding="UTF-8" standalone="no"?>
<svg
   xmlns:dc="http://purl.org/dc/elements/1.1/"
   xmlns:cc="http://creativecommons.org/ns#"
   xmlns:rdf="http://www.w3.org/1999/02/22-rdf-syntax-ns#"
   xmlns:svg="http://www.w3.org/2000/svg"
   xmlns="http://www.w3.org/2000/svg"
   xmlns:xlink="http://www.w3.org/1999/xlink"
   xmlns:sodipodi="http://sodipodi.sourceforge.net/DTD/sodipodi-0.dtd"
   xmlns:inkscape="http://www.inkscape.org/namespaces/inkscape"
   height="763"
   width="603"
   version="1.0"
   id="svg20"
   sodipodi:version="0.32"
   inkscape:version="0.46"
   sodipodi:docname="Morges-coat_of_arms.svg"
   sodipodi:docbase="C:\Documents and Settings\Steve\Bureau\Blason Villages Suisse pour Wikipédia (par Delta-9)"
   inkscape:output_extension="org.inkscape.output.svg.inkscape">
  <metadata
     id="metadata31">
    <rdf:RDF>
      <cc:Work
         rdf:about="">
        <dc:format>image/svg+xml</dc:format>
        <dc:type
           rdf:resource="http://purl.org/dc/dcmitype/StillImage" />
        <dc:date>07-AUG-2006</dc:date>
        <dc:creator>
          <cc:Agent>
            <dc:title>Jérôme BLUM (wagner51)</dc:title>
          </cc:Agent>
        </dc:creator>
        <cc:license
           rdf:resource="http://creativecommons.org/licenses/GPL/2.0/" />
        <dc:coverage />
        <dc:description>Gabarit pour le Projet:Blasons de WIkipédia</dc:description>
        <dc:subject>
          <rdf:Bag>
            <rdf:li>blason suisse modèle gabarit projet blasons</rdf:li>
          </rdf:Bag>
        </dc:subject>
        <dc:language>fr</dc:language>
        <dc:title>Gabrit d'un blason suisse</dc:title>
      </cc:Work>
      <cc:License
         rdf:about="http://creativecommons.org/licenses/GPL/2.0/">
        <cc:permits
           rdf:resource="http://web.resource.org/cc/Reproduction" />
        <cc:permits
           rdf:resource="http://web.resource.org/cc/Distribution" />
        <cc:requires
           rdf:resource="http://web.resource.org/cc/Notice" />
        <cc:permits
           rdf:resource="http://web.resource.org/cc/DerivativeWorks" />
        <cc:requires
           rdf:resource="http://web.resource.org/cc/ShareAlike" />
        <cc:requires
           rdf:resource="http://web.resource.org/cc/SourceCode" />
      </cc:License>
    </rdf:RDF>
  </metadata>
  <defs
     id="defs29"><inkscape:perspective
   sodipodi:type="inkscape:persp3d"
   inkscape:vp_x="0 : 381.5 : 1"
   inkscape:vp_y="0 : 1000 : 0"
   inkscape:vp_z="603 : 381.5 : 1"
   inkscape:persp3d-origin="301.5 : 254.33333 : 1"
   id="perspective28" />
<linearGradient
   id="linearGradient2893">
  <stop
     style="stop-color:#ffffff;stop-opacity:0.3137255;"
     offset="0"
     id="stop2895" />
  <stop
     id="stop2897"
     offset="0.19"
     style="stop-color:#ffffff;stop-opacity:0.25098041;" />
  <stop
     style="stop-color:#6b6b6b;stop-opacity:0.1254902;"
     offset="0.60000002"
     id="stop2901" />
  <stop
     style="stop-color:#000000;stop-opacity:0.1254902;"
     offset="1"
     id="stop2899" />
</linearGradient>
<linearGradient
   id="linearGradient2955">
  <stop
     style="stop-color:white;stop-opacity:0;"
     offset="0"
     id="stop2965" />
  <stop
     style="stop-color:black;stop-opacity:0.64583331;"
     offset="1"
     id="stop2959" />
</linearGradient>
<radialGradient
   inkscape:collect="always"
   xlink:href="#linearGradient2893"
   id="radialGradient3236"
   gradientUnits="userSpaceOnUse"
   gradientTransform="matrix(1.215027,1.531577e-24,1.464684e-23,1.266667,-839.1924,-490.4894)"
   cx="858.04236"
   cy="579.93323"
   fx="858.04236"
   fy="579.93323"
   r="300" />
<inkscape:perspective
   id="perspective2492"
   inkscape:persp3d-origin="297.63751 : 280.63 : 1"
   inkscape:vp_z="595.27502 : 420.94501 : 1"
   inkscape:vp_y="0 : 1000 : 0"
   inkscape:vp_x="0 : 420.94501 : 1"
   sodipodi:type="inkscape:persp3d" />

	
	
	

	
	

		
		
		
		
		
	</defs>
  <sodipodi:namedview
     inkscape:window-height="968"
     inkscape:window-width="1280"
     inkscape:pageshadow="2"
     inkscape:pageopacity="0.0"
     guidetolerance="10.0"
     gridtolerance="10.0"
     objecttolerance="10.0"
     borderopacity="1.0"
     bordercolor="#666666"
     pagecolor="#ffffff"
     id="base"
     inkscape:zoom="0.82938062"
     inkscape:cx="313.42609"
     inkscape:cy="370.01691"
     inkscape:window-x="1280"
     inkscape:window-y="22"
     inkscape:current-layer="layer2"
     showgrid="false"
     showguides="true"
     inkscape:guide-bbox="true">
    <sodipodi:guide
       orientation="horizontal"
       position="761.5"
       id="guide1885" />
    <sodipodi:guide
       orientation="vertical"
       position="1.5"
       id="guide1887" />
    <sodipodi:guide
       orientation="horizontal"
       position="1.5"
       id="guide1889" />
    <sodipodi:guide
       orientation="vertical"
       position="601.5"
       id="guide1891" />
    <sodipodi:guide
       orientation="vertical"
       position="301.50081"
       id="guide1893" />
  </sodipodi:namedview>
  <desc
     id="desc22">Coat of Arms of Canton of Freiburg (Fribourg)</desc>
  <g
     inkscape:groupmode="layer"
     id="layer1"
     inkscape:label="Fond écu"
     style="opacity:1;display:inline"
     sodipodi:insensitive="true">
    <path
       id="path1899"
       d="M 1.5,1.49998 L 1.5,460.3679 C 1.5,626.6785 135.81456,761.5 301.49999,761.5 C 467.18543,761.5 601.5,626.6785 601.5,460.3679 L 601.5,1.49998 L 1.5,1.49998 z"
       style="fill:#e20909;fill-opacity:1" />
    <rect
       height="365.5"
       width="600"
       y="1.5"
       x="1.4999977"
       id="rect2505"
       style="opacity:1;fill:#ffffff" />
  </g>
  <g
     inkscape:groupmode="layer"
     id="layer2"
     inkscape:label="Meubles"
     style="opacity:1;display:inline"
     sodipodi:insensitive="true">
    <path
       id="path2472"
       d="M 597.591,508.963 C 596.067,509.023 594.51,509.065 592.879,509.065 C 544.318,509.065 544.318,481.718 495.755,481.718 C 447.192,481.718 447.192,509.065 398.627,509.065 C 350.064,509.065 350.064,481.718 301.499,481.718 C 252.936,481.718 252.936,509.065 204.374,509.065 C 155.811,509.065 155.81,481.718 107.248,481.718 C 58.685,481.718 58.685,509.065 10.121,509.065 C 8.49,509.065 6.933,509.023 5.408,508.963 C 11.413,546.109 24.182,580.971 42.414,612.24 C 62.743,604.249 72.729,590.433 107.249,590.433 C 155.811,590.433 155.811,617.78 204.375,617.78 C 252.939,617.78 252.939,590.433 301.5,590.433 C 350.064,590.433 350.064,617.78 398.628,617.78 C 447.192,617.78 447.192,590.433 495.756,590.433 C 530.275,590.433 540.261,604.247 560.587,612.239 C 578.817,580.97 591.586,546.108 597.591,508.963 z"
       style="fill:#ffffff" />
    <path
       id="path2474"
       d="M 601.499,251.956 L 601.499,143.239 C 598.796,143.443 595.945,143.564 592.879,143.564 C 544.318,143.564 544.318,116.218 495.755,116.218 C 447.192,116.218 447.192,143.564 398.627,143.564 C 350.064,143.564 350.064,116.218 301.499,116.218 C 252.936,116.218 252.936,143.564 204.374,143.564 C 155.811,143.564 155.81,116.218 107.248,116.218 C 58.685,116.218 58.685,143.564 10.121,143.564 C 7.055,143.564 4.203,143.443 1.499,143.239 L 1.499,251.957 C 4.203,252.162 7.054,252.282 10.121,252.282 C 58.685,252.282 58.685,224.935 107.248,224.935 C 155.81,224.935 155.81,252.282 204.374,252.282 C 252.938,252.282 252.938,224.935 301.499,224.935 C 350.063,224.935 350.063,252.282 398.627,252.282 C 447.191,252.282 447.191,224.935 495.755,224.935 C 544.319,224.935 544.318,252.282 592.879,252.282 C 595.945,252.282 598.796,252.161 601.499,251.956 z"
       style="fill:#e20909" />
    <path
       style="fill:none;stroke:#000000;stroke-width:3"
       d="M 597.591,508.963 C 596.067,509.023 594.51,509.065 592.879,509.065 C 544.318,509.065 544.318,481.718 495.755,481.718 C 447.192,481.718 447.192,509.065 398.627,509.065 C 350.064,509.065 350.064,481.718 301.499,481.718 C 252.936,481.718 252.936,509.065 204.374,509.065 C 155.811,509.065 155.81,481.718 107.248,481.718 C 58.685,481.718 58.685,509.065 10.121,509.065 C 8.49,509.065 6.933,509.023 5.408,508.963"
       id="path2478" />
    <path
       style="fill:none;stroke:#000000;stroke-width:3"
       d="M 42.414,612.241 C 62.743,604.25 72.729,590.434 107.249,590.434 C 155.811,590.434 155.811,617.781 204.375,617.781 C 252.939,617.781 252.939,590.434 301.5,590.434 C 350.064,590.434 350.064,617.781 398.628,617.781 C 447.192,617.781 447.192,590.434 495.756,590.434 C 530.275,590.434 540.261,604.248 560.587,612.24"
       id="path2480" />
    <line
       style="fill:none;stroke:#000000;stroke-width:3"
       id="line2509"
       x1="1.4999977"
       y1="367"
       x2="601.49799"
       y2="367" />
    <path
       style="fill:none;stroke:#000000;stroke-width:3"
       d="M 1.5,251.956 C 4.204,252.161 7.055,252.281 10.122,252.281 C 58.686,252.281 58.686,224.934 107.249,224.934 C 155.811,224.934 155.811,252.281 204.375,252.281 C 252.939,252.281 252.939,224.934 301.5,224.934 C 350.064,224.934 350.064,252.281 398.628,252.281 C 447.192,252.281 447.192,224.934 495.756,224.934 C 544.32,224.934 544.319,252.281 592.88,252.281 C 595.946,252.281 598.797,252.16 601.5,251.956"
       id="path2483" />
    <path
       style="fill:none;stroke:#000000;stroke-width:3"
       d="M 601.499,143.239 C 598.796,143.443 595.945,143.564 592.879,143.564 C 544.318,143.564 544.318,116.218 495.755,116.218 C 447.192,116.218 447.192,143.564 398.627,143.564 C 350.064,143.564 350.064,116.218 301.499,116.218 C 252.936,116.218 252.936,143.564 204.374,143.564 C 155.811,143.564 155.81,116.218 107.248,116.218 C 58.685,116.218 58.685,143.564 10.121,143.564 C 7.055,143.564 4.203,143.443 1.499,143.239"
       id="path2485" />
  </g>
  <g
     inkscape:groupmode="layer"
     id="layer3"
     inkscape:label="Reflet final"
     style="display:inline"
     sodipodi:insensitive="true">
    <path
       style="fill:url(#radialGradient3236);fill-opacity:1"
       d="M 1.5,1.5 L 1.5,460.3679 C 1.5,626.67854 135.81454,761.5 301.49993,761.5 C 467.1854,761.5 601.5,626.67854 601.5,460.3679 L 601.5,1.5 L 1.5,1.5 z "
       id="path2346" />
  </g>
  <g
     inkscape:groupmode="layer"
     id="layer4"
     inkscape:label="Contour final"
     style="display:inline"
     sodipodi:insensitive="true">
    <path
       style="fill:none;fill-opacity:1;stroke:#000000;stroke-width:3;stroke-miterlimit:4;stroke-dasharray:none;stroke-opacity:1"
       d="M 1.5,1.5 L 1.5,460.36794 C 1.5,626.67854 135.81454,761.5 301.49993,761.5 C 467.1854,761.5 601.5,626.67854 601.5,460.36794 L 601.5,1.5 L 1.5,1.5 z"
       id="path3239" />
  </g>
</svg>
